X: 30176
T: Old Dudeen, The
R: reel
M: 4/4
K: Bminor
fe|dcBA BAFA|dcde fgfe|dcBA FDFA|BdcA B2:|
de|fedc defg|afbf afeg|fedc defg|afdf e2 de|
fedc defg|afbf a2a2|bfbf afaf|bfaf e2||

